X:43
T:Bourre  huit
R:bourre  3 temps
C:trad
O:France
M:3/8
L:1/8
Q:1/4=100
K:G
d2^c|d2A/2B/2|cBA|BGD|d2^c|d2A/2B/2|cBA|1G3:|2G2|
|:D|GFG|D2G|A>d B/2A/2|BGD|GFE|D2G|A2F|1G2:|2G3||
